X: 33837
T: Recluse, The
R: hornpipe
M: 4/4
K: Fdorian
(3Bcd|e2B4eB|d2B2=B2G2|c2A2cede|BcBA GFED|
E3G EFE_D|C2A,2A2=A,2|B,=A,B,D FAGF|E2G2E2:|
g^f|g2e2b2e2|f=efb f2_ed|e2c2g2c2|d2G2edcB|
c2A2e2A2|GABcB2(3GFE|D2B4a2|gabg egg^f|
g2e2b2e2|f=efb fdBd|c2C2e2C2|B=ABe BGEB,|
CEAc eBGE|B,EGB eBGE|DB=Ac B_AFD|E2G2E2||

